X:90
T:Da Slockit Light
R:Air
C:Tom Anderson, 1969
Z:Alf Warnock - alf0@rogers.com - http://members.rogers.com/alf0 from photocopy
M:4/4
L:1/8
K:D
FE|"D"D3F A2d2|fedc "Bm7"d2A2|"G"B2d2 "D"A2d2|"Em"BAGF "A7"EGFE|
"D"D3F A2d2|fedc d2A2|"Em"B2G2 "A7"A[GA][FA][EA]|[1 "D"[A,6D6]FE:|[2 "D"[A,6D6]zg:"D"f2a2 "A7"e3c|
"Em"d3e "A7"dcBA|"D"f2a2 "E7"e2^g2|"A7"a6g2|"D"f2a2 "A7"e3c|
"Em"d3e dcBA|"G"B2G2 "A7"AGFE|"D"D7g|"D"f2a2 "A7"e3c|
"Em"d3e dcBA|"G"B2d2 "D"A2d2|"Em"BAGF "A7"EGFE|"D"D3F A2d2|
"D"fedc "Bm7"d2A2|"Em"B2G2 "A7"A[GA][FA][EA]|"D"[A,6D6]z2|]
